assets/mobile-ui-grey/MobileUiGrey16.svg

<svg xmlns="http://www.w3.org/2000/svg" data-name="Layer 3" viewBox="0 0 128 128"><path d="M84.822 17.277H43.178a8.452 8.452 0 00-8.444 8.444v76.558a8.452 8.452 0 008.444 8.444h41.644a8.452 8.452 0 008.444-8.444V25.721a8.452 8.452 0 00-8.444-8.444zM38.956 34.689h50.088v54.742H38.956zM43.178 21.5h41.644a4.228 4.228 0 014.222 4.222v4.746H38.956v-4.747a4.228 4.228 0 014.222-4.221zm41.643 85H43.178a4.228 4.228 0 01-4.222-4.222v-8.625h50.088v8.625a4.228 4.228 0 01-4.222 4.222z"/><path d="M69.43 97.644H58.57a2.111 2.111 0 000 4.222h10.86a2.111 2.111 0 000-4.222z"/></svg>

<svg id="Layer_3" data-name="Layer 3" xmlns="http://www.w3.org/2000/svg" viewBox="0 0 128 128"><title>Artboard 112</title><path d="M84.822,17.277H43.178a8.452,8.452,0,0,0-8.444,8.444v76.558a8.452,8.452,0,0,0,8.444,8.444H84.822a8.452,8.452,0,0,0,8.444-8.444V25.721A8.452,8.452,0,0,0,84.822,17.277ZM38.956,34.689H89.044V89.431H38.956ZM43.178,21.5H84.822a4.228,4.228,0,0,1,4.222,4.222v4.746H38.956V25.721A4.228,4.228,0,0,1,43.178,21.5Zm41.643,85H43.178a4.228,4.228,0,0,1-4.222-4.222V93.653H89.044v8.625A4.228,4.228,0,0,1,84.822,106.5Z"/><path d="M69.43,97.644H58.57a2.111,2.111,0,0,0,0,4.222H69.43a2.111,2.111,0,0,0,0-4.222Z"/></svg>
